icons/1_Primary/cPanel.svg

<svg width="1024" height="1024" viewBox="0 0 1024 1024" fill="none" xmlns="http://www.w3.org/2000/svg">
<g clip-path="url(#clip0_2_1896)">
<path d="M512 1024C794.77 1024 1024 794.77 1024 512C1024 229.23 794.77 0 512 0C229.23 0 0 229.23 0 512C0 794.77 229.23 1024 512 1024Z" fill="#F8C18C"/>
<path d="M202.33 470.35H248.7L241.53 497.84C240.545 501.506 238.384 504.748 235.38 507.07C232.392 509.389 228.702 510.62 224.92 510.56H203.36C198.665 510.494 194.086 512.012 190.36 514.87C186.545 517.822 183.777 521.919 182.46 526.56C181.51 529.969 181.403 533.559 182.15 537.02C182.845 540.179 184.209 543.152 186.15 545.74C188.108 548.304 190.639 550.376 193.54 551.79C196.6 553.307 199.975 554.082 203.39 554.05H216.5C217.674 554.033 218.836 554.296 219.888 554.818C220.94 555.34 221.853 556.105 222.55 557.05C223.318 557.958 223.846 559.045 224.085 560.21C224.325 561.375 224.268 562.582 223.92 563.72L215.71 594.08H201.35C191.899 594.173 182.568 591.955 174.17 587.62C166.104 583.503 159.049 577.653 153.51 570.49C148.019 563.332 144.199 555.036 142.33 546.21C140.352 536.951 140.599 527.355 143.05 518.21L143.87 515.13C147.342 502.276 154.946 490.922 165.51 482.82C170.691 478.891 176.463 475.81 182.61 473.69C188.948 471.472 195.615 470.342 202.33 470.35ZM225.72 594.06L266.14 442.65C267.126 438.983 269.286 435.741 272.29 433.42C275.278 431.101 278.968 429.869 282.75 429.93H325.64C335.091 429.836 344.422 432.054 352.82 436.39C360.877 440.5 367.919 446.351 373.436 453.518C378.953 460.685 382.808 468.989 384.72 477.83C386.767 487.087 386.485 496.708 383.9 505.83L383.08 508.91C381.349 515.369 378.576 521.503 374.87 527.07C369.388 535.321 361.946 542.085 353.21 546.757C344.474 551.428 334.717 553.862 324.81 553.84H287.69L295.08 526.14C296.111 522.557 298.267 519.401 301.23 517.14C304.218 514.821 307.908 513.59 311.69 513.65H323.59C328.384 513.656 333.043 512.066 336.833 509.131C340.623 506.196 343.327 502.082 344.52 497.44C345.467 494.154 345.56 490.681 344.79 487.35C344.095 484.191 342.731 481.217 340.79 478.63C338.817 476.053 336.292 473.952 333.4 472.48C330.371 470.905 327.004 470.095 323.59 470.12H300.59L270.59 581.53C269.56 585.112 267.403 588.268 264.44 590.53C261.517 592.827 257.898 594.058 254.18 594.02L225.72 594.06ZM481.57 513.22L482.19 510.96C482.333 510.496 482.361 510.004 482.273 509.527C482.184 509.05 481.98 508.601 481.68 508.22C481.37 507.846 480.978 507.549 480.533 507.353C480.089 507.156 479.605 507.066 479.12 507.09H412.43C409.717 507.127 407.037 506.492 404.63 505.24C402.386 504.087 400.426 502.451 398.89 500.45C397.362 498.431 396.309 496.092 395.81 493.61C395.259 490.963 395.331 488.224 396.02 485.61L400.12 470.02H490.39C495.746 469.959 501.034 471.227 505.78 473.71C510.303 476.052 514.27 479.339 517.41 483.35C520.515 487.383 522.688 492.055 523.77 497.03C524.923 502.28 524.817 507.728 523.46 512.93L507.25 573.25C505.687 579.227 502.175 584.513 497.271 588.271C492.366 592.029 486.349 594.045 480.17 594L413.49 593.79C408.001 593.822 402.581 592.574 397.659 590.143C392.737 587.713 388.451 584.168 385.14 579.79C381.948 575.528 379.707 570.631 378.57 565.43C377.339 559.974 377.48 554.298 378.98 548.91L379.8 545.83C380.748 542.011 382.382 538.396 384.62 535.16C386.796 531.96 389.462 529.122 392.52 526.75C395.555 524.407 398.949 522.57 402.57 521.31C406.328 520 410.281 519.34 414.26 519.36H470.26L466.16 534.75C465.125 538.33 462.97 541.484 460.01 543.75C457.086 546.045 453.467 547.276 449.75 547.24H424.75C423.704 547.179 422.67 547.498 421.841 548.14C421.012 548.781 420.444 549.701 420.24 550.73C420.024 551.411 419.986 552.136 420.13 552.836C420.273 553.536 420.594 554.188 421.06 554.73C421.497 555.287 422.059 555.734 422.699 556.036C423.34 556.338 424.042 556.487 424.75 556.47H465.17C466.57 556.502 467.942 556.069 469.07 555.24C470.142 554.443 470.873 553.272 471.12 551.96L471.53 550.32L481.57 513.22ZM601 470.35C610.51 470.243 619.902 472.461 628.36 476.81C636.415 480.921 643.463 486.76 649 493.91C654.506 501.106 658.323 509.449 660.17 518.32C662.147 527.626 661.832 537.273 659.25 546.43L649 585C648.37 587.65 646.804 589.983 644.59 591.57C642.394 593.189 639.728 594.042 637 594H614.93C613.747 594.027 612.573 593.775 611.506 593.264C610.438 592.752 609.507 591.996 608.786 591.057C608.066 590.117 607.578 589.021 607.361 587.857C607.145 586.694 607.206 585.495 607.54 584.36L619.85 537.79C620.803 534.52 620.91 531.062 620.16 527.74C619.462 524.581 618.099 521.609 616.16 519.02C614.183 516.447 611.659 514.346 608.77 512.87C605.729 511.291 602.347 510.481 598.92 510.51H575.92L556 585C555.377 587.652 553.809 589.988 551.59 591.57C549.361 593.201 546.662 594.064 543.9 594.03H522C520.834 594.04 519.682 593.773 518.639 593.252C517.596 592.73 516.692 591.969 516 591.03C515.234 590.12 514.707 589.034 514.467 587.869C514.228 586.704 514.284 585.497 514.63 584.36L544.99 470.29L601 470.35ZM721.84 509.43C720.207 510.714 718.993 512.454 718.35 514.43L709.12 549.31C708.865 550.225 708.826 551.188 709.005 552.121C709.185 553.055 709.578 553.934 710.155 554.69C710.731 555.445 711.475 556.057 712.328 556.477C713.181 556.897 714.12 557.114 715.07 557.11H800L793.45 581.52C792.42 585.102 790.263 588.258 787.3 590.52C784.374 592.847 780.739 594.1 777 594.07H699.65C694.306 594.132 689.025 592.901 684.26 590.48C679.707 588.184 675.731 584.888 672.63 580.84C669.537 576.772 667.367 572.08 666.27 567.09C665.105 561.888 665.28 556.475 666.78 551.36L679.3 504.79C681.269 497.465 684.995 490.732 690.155 485.173C695.315 479.614 701.752 475.398 708.91 472.89C713.757 471.179 718.86 470.31 724 470.32H778.78C784.132 470.256 789.416 471.521 794.16 474C798.684 476.34 802.651 479.628 805.79 483.64C808.887 487.69 811.012 492.398 812 497.4C813.094 502.626 812.954 508.037 811.59 513.2L807.9 527.2C806.409 533.153 802.913 538.411 798 542.09C793.145 545.79 787.194 547.765 781.09 547.7H719.09L723.19 532.52C724.091 528.93 726.19 525.755 729.14 523.52C732.143 521.175 735.86 519.932 739.67 520H764.67C765.716 520.058 766.748 519.738 767.577 519.097C768.405 518.456 768.975 517.537 769.18 516.51L770 513.43C770.186 512.734 770.21 512.005 770.072 511.298C769.933 510.592 769.635 509.926 769.2 509.352C768.765 508.778 768.204 508.311 767.562 507.987C766.919 507.662 766.21 507.489 765.49 507.48H727.36C725.338 507.467 723.376 508.161 721.81 509.44L721.84 509.43ZM799.84 594.06L841 439.17C841.634 436.499 843.188 434.138 845.39 432.5C847.6 430.805 850.316 429.904 853.1 429.94H875.1C876.307 429.907 877.504 430.161 878.593 430.683C879.681 431.205 880.63 431.978 881.36 432.94C882.127 433.849 882.654 434.936 882.893 436.1C883.132 437.265 883.076 438.472 882.73 439.61L851.92 553.85C850.483 559.707 848.018 565.263 844.64 570.26C841.382 575.082 837.363 579.344 832.74 582.88C828.105 586.395 822.95 589.166 817.46 591.09C811.778 593.089 805.794 594.097 799.77 594.07L799.84 594.06Z" fill="white"/>
</g>
<defs>
<clipPath id="clip0_2_1896">
<rect width="1024" height="1024" fill="white"/>
</clipPath>
</defs>
</svg>

<svg xmlns="http://www.w3.org/2000/svg" viewBox="0 0 1024 1024">
   <circle cx="512" cy="512" r="512" style="fill:#ff6c2c"/>
   <path d="M202.33 470.35h46.37l-7.17 27.49a17.36 17.36 0 0 1-6.15 9.23 16.63 16.63 0 0 1-10.46 3.49h-21.56a20.88 20.88 0 0 0-13 4.31 22.57 22.57 0 0 0-7.9 11.69 21.82 21.82 0 0 0-.31 10.46 22.64 22.64 0 0 0 4 8.72 20.71 20.71 0 0 0 7.39 6.05 21.71 21.71 0 0 0 9.85 2.26h13.11a7.39 7.39 0 0 1 6.05 3 7.11 7.11 0 0 1 1.37 6.67l-8.21 30.36h-14.36a58 58 0 0 1-27.18-6.46 61.4 61.4 0 0 1-20.66-17.13 60.46 60.46 0 0 1-11.18-24.28 59.85 59.85 0 0 1 .72-28l.82-3.08a60.65 60.65 0 0 1 21.64-32.31 61.49 61.49 0 0 1 17.1-9.13 59.5 59.5 0 0 1 19.72-3.34Zm23.39 123.71 40.42-151.41a17.36 17.36 0 0 1 6.15-9.23 16.63 16.63 0 0 1 10.46-3.49h42.89a58 58 0 0 1 27.18 6.46 61 61 0 0 1 31.9 41.44 57.31 57.31 0 0 1-.82 28l-.82 3.08a61.47 61.47 0 0 1-8.21 18.16 59.94 59.94 0 0 1-50.06 26.77h-37.12l7.39-27.7a17.36 17.36 0 0 1 6.15-9 16.63 16.63 0 0 1 10.46-3.49h11.9a21.58 21.58 0 0 0 20.93-16.21 20.1 20.1 0 0 0 .27-10.09 22.64 22.64 0 0 0-4-8.72 21.72 21.72 0 0 0-7.39-6.15 20.93 20.93 0 0 0-9.81-2.36h-23l-30 111.41a17.36 17.36 0 0 1-6.15 9 16.33 16.33 0 0 1-10.26 3.49Zm255.85-80.84.62-2.26a3 3 0 0 0-.51-2.74 3.13 3.13 0 0 0-2.56-1.13h-66.69a16.41 16.41 0 0 1-7.8-1.85 17.06 17.06 0 0 1-5.74-4.79 16.82 16.82 0 0 1-3.08-6.84 17.44 17.44 0 0 1 .21-8l4.1-15.59h90.27a32.41 32.41 0 0 1 15.39 3.69 35.51 35.51 0 0 1 11.63 9.64 34.43 34.43 0 0 1 6.36 13.68 34.05 34.05 0 0 1-.31 15.9l-16.21 60.32A27.78 27.78 0 0 1 480.17 594l-66.68-.21a35.28 35.28 0 0 1-28.35-14 37.2 37.2 0 0 1-6.57-14.36 33.84 33.84 0 0 1 .41-16.52l.82-3.08a32.54 32.54 0 0 1 4.82-10.67 36.93 36.93 0 0 1 7.9-8.41 35.6 35.6 0 0 1 10.05-5.44 35 35 0 0 1 11.69-1.95h56l-4.1 15.39a17.43 17.43 0 0 1-6.15 9 16.36 16.36 0 0 1-10.26 3.49h-25a4.34 4.34 0 0 0-4.51 3.49 4.19 4.19 0 0 0 .82 4 4.55 4.55 0 0 0 3.69 1.74h40.42a6.34 6.34 0 0 0 3.9-1.23 5.31 5.31 0 0 0 2.05-3.28l.41-1.64ZM601 470.35a58.4 58.4 0 0 1 27.36 6.46 61.43 61.43 0 0 1 20.64 17.1 60.45 60.45 0 0 1 11.17 24.41 58.66 58.66 0 0 1-.92 28.11L649 585a11.3 11.3 0 0 1-4.41 6.57A12.46 12.46 0 0 1 637 594h-22.07a7.52 7.52 0 0 1-7.39-9.64l12.31-46.57a20.1 20.1 0 0 0 .31-10.05 22.73 22.73 0 0 0-4-8.72 21.88 21.88 0 0 0-7.39-6.15 21 21 0 0 0-9.85-2.36h-23L556 585a11.22 11.22 0 0 1-4.41 6.57 12.75 12.75 0 0 1-7.69 2.46H522a7.37 7.37 0 0 1-6-3 7.13 7.13 0 0 1-1.37-6.67l30.36-114.07Zm120.84 39.08a10.49 10.49 0 0 0-3.49 5l-9.23 34.88a6.15 6.15 0 0 0 5.95 7.8H800l-6.55 24.41a17.36 17.36 0 0 1-6.15 9 16.33 16.33 0 0 1-10.3 3.55h-77.35a33.12 33.12 0 0 1-15.39-3.59 33.84 33.84 0 0 1-11.63-9.64 35.21 35.21 0 0 1-6.36-13.75 31.46 31.46 0 0 1 .51-15.73l12.52-46.57a46.63 46.63 0 0 1 29.61-31.9 45.07 45.07 0 0 1 15.09-2.57h54.78a32.38 32.38 0 0 1 15.38 3.68 35.45 35.45 0 0 1 11.63 9.64A33.27 33.27 0 0 1 812 497.4a34.33 34.33 0 0 1-.41 15.8l-3.69 14a26.71 26.71 0 0 1-9.9 14.89 27.41 27.41 0 0 1-16.91 5.61h-62l4.1-15.18a16.26 16.26 0 0 1 5.95-9 16.63 16.63 0 0 1 10.53-3.52h25a4.35 4.35 0 0 0 4.51-3.49l.82-3.08a4.73 4.73 0 0 0-4.51-5.95h-38.13a8.69 8.69 0 0 0-5.55 1.96Zm78 84.63L841 439.17a11.67 11.67 0 0 1 4.39-6.67 12.41 12.41 0 0 1 7.71-2.56h22a7.6 7.6 0 0 1 6.26 3 7.13 7.13 0 0 1 1.37 6.67l-30.81 114.24a51 51 0 0 1-7.28 16.41 53.79 53.79 0 0 1-11.9 12.62 55.84 55.84 0 0 1-15.28 8.21 52.56 52.56 0 0 1-17.69 2.98Z" style="fill:#fff"/>
</svg>
